X:7648
T:Traveller, The
O:england
M:4/4
L:1/8
K:G
D|G2BG dGBG|ABcd cBAG|(3Bcd) gd efdB|cBAG FAD2|
G2BG dGBG|ABcd cBAG|(3Bcd gd efdB|cAFA G3:|
d|g2dg egdg|g2bg agef|g2dg egdB|cBAG FAD2|
g2dg egdg|g2bg agef|g3a gfed|1egfa g3:|2egfa gedB||


